X: 37098
T: Silver Vale, The
R: jig
M: 6/8
K: Dmajor
|:dAF AGF|dAF AGF|A,CE GFG|A,CE GFE|
DFA DGB|ABc d2 e|fed cBA|GFE D3:|
|:fef aga|fdc d2f|ece gfg|efd cde|
fef gfg|aga bag|fed cBA|GFE D3:|

